X:1
T:F minor Daniel Read, 1785
T:Isaac Watts, 1709 (Psalm 90) 88. 88. (L. M.)
T:Mortality
T:No copyright. Transcribed from The American Singing-Book, 1786.
%%score [ 1 2 3 4 ]
L:1/8
M:4/4
K:Ab
V:1 treble nm="Treble" snm="Tr."
V:2 treble nm="Counter" snm="C."
V:3 treble-8 nm="Tenor" snm="T."
V:4 bass nm="Bass" snm="B."
V:1
 c4 | c2 c2 cd ed | c2 B2 A4- | A2 A2 A2 B2 | c4 z2 f2 | c2 c2 c4 | z2 c2 c2 c2 | B4 z2 c2 | %8
 f2 f2 =e4- | e2 =d2 c2 f2 | c3 d c2 c2 | c8 |] %12
V:2
 F4 | F2 A2 A3 B | (AF) =E2 F4- | F2 F2 F2 =E2 | =E4 z2 A2 | A2 G2 A4 | z2 A2 A2 A2 | G4 z2 F2 | %8
w: 5.~Death,|like an ov- er-|flow- * ing stream,~|* sweeps us a-|way; Our|life's a dream,|An emp- ty|tale, A|
 F2 F2 G4- | G2 F2 F2 F2 | E3 E F2 =E2 | F8 |] %12
w: mor- ning flower,~|* cut down and|with- ered in an|hour.|
V:3
 F4 | c2 f2 ed cB | A2 B2 c4- | c2 d2 c2 B>A | G4 z2 c2 | f2 =e2 f4 | z2 e2 e2 e2 | e4 z2 c2 | %8
 c2 c2 c4- | c2 f2 c2 c2 | c3 B A2 G2 | F8 |] %12
V:4
 F,4 | F,2 F,G, A,3 G, | F,2 G,2 F,4- | F,2 F,2 F,2 G,2 | C,6 F,2 | F,2 C,2 F,4 | z2 A,2 A,2 A,2 | %7
 E,6 F,2 | F,2 F,2 C,4- | C,2 B,,2 F,2 F,G, | A,3 G, F,2 C,2 | F,,8 |] %12

